X: 76
T: 72. FAREWELL TO WHISKEY
B: Sam Bayard, "Hill Country Tunes" 1944 #72
S: Played by Mrs Sarah Armstrong, (near) Derry, PA, Nov 18, 1943.
Z: 2010 John Chambers <jc:trillian.mit.edu>
N: No other versions of this tune have been noted.  This is another case of a tune-title being
N: misapplied, since No.72 is not the (Scottish) tune, attributed to Neil Gow, which generally
N: goes by the name "Farewell to Whiskey," and is well known in western Pennsylvania.
R: reel, polka
M: C
L: 1/8
K: D
A3B [A2D2]FG | [A2D2]d2 [f2A2]d2 | A3B A2[A2F2] | G2F2 [A2E2]D2 |
[A3D3]B [A2D2][AF]G | [A2D2]d2 [f4A4] | g2f2 e2[e2c2] | [d4D4] [d2D2]z2 ||
[e3A3]f [e2A2]cd | e2[a2A2] ^g2f2 | [e3A3]f [e2A2]c2 | d2c2 B2[A2D2] |
[e3A3]f [e2A2]cd | e2[a2A2] [a2A2]z2 | d2c2 B2cB | A2c2 "D.C."A2z2 |]

%%sep 2 1 500
%%sep 1 1 500

